svg/fluentui-system-icons/ic_fluent_globe_location_24_filled.svg

<svg width="24" height="24" viewBox="0 0 24 24" fill="none" xmlns="http://www.w3.org/2000/svg">
<path d="M8.90435 16.5008H12.5224C12.5076 16.6652 12.5001 16.8317 12.5001 17C12.5001 18.201 12.9567 19.361 13.7723 20.4875C13.2316 21.4465 12.615 21.999 12.0001 21.999C10.8031 21.999 9.59951 19.9051 8.9624 16.7953L8.90435 16.5008ZM8.67404 15.0009H12.8746C13.3659 13.7422 14.3076 12.7089 15.5015 12.099L15.5016 12.0005C15.5016 11.3147 15.4748 10.6459 15.4246 10.0002H8.57558L8.54234 10.4887C8.51361 10.9814 8.49853 11.4862 8.49853 12.0005C8.49853 13.0476 8.56099 14.0551 8.67404 15.0009ZM18.0001 11.5C19.5425 11.5 20.9367 12.1349 21.9354 13.1577C21.9792 12.778 22.0016 12.3919 22.0016 12.0005C22.0016 11.3155 21.9328 10.6465 21.8016 10.0002L16.9315 10.0008L16.9703 10.6567C16.9848 10.9647 16.9943 11.2763 16.9988 11.5909C17.3234 11.5312 17.6581 11.5 18.0001 11.5ZM3.06589 16.501L7.37153 16.5008C7.7363 18.583 8.35458 20.3545 9.16372 21.5942C6.60088 20.8373 4.46722 19.0825 3.21224 16.7799L3.06589 16.501ZM2.1986 10.0002L7.06862 10.0008C7.02238 10.6508 6.99854 11.319 6.99854 12.0005C6.99854 12.8299 7.03385 13.6396 7.10188 14.4207L7.159 15.0009H2.45637C2.1589 14.0537 1.99854 13.0458 1.99854 12.0005C1.99854 11.3155 2.0674 10.6465 2.1986 10.0002ZM14.9444 2.57707L14.8365 2.40684C17.8548 3.29781 20.2788 5.57442 21.372 8.50016L16.7811 8.50045C16.4656 6.08353 15.8246 4.00785 14.9444 2.57707ZM9.04186 2.44365L9.16364 2.40688C8.28288 3.75639 7.62827 5.736 7.28061 8.06062L7.21905 8.50045L2.62816 8.50016C3.70663 5.6139 6.08022 3.35936 9.04186 2.44365ZM12.0001 2.00195C13.3189 2.00195 14.6457 4.5437 15.2141 8.1854L15.2609 8.5002H8.73926C9.27868 4.69102 10.6436 2.00195 12.0001 2.00195ZM22.5001 17C22.5001 14.5147 20.4853 12.5 18.0001 12.5C15.5148 12.5 13.5001 14.5147 13.5001 17C13.5001 18.8626 14.9199 20.8149 17.7001 22.9C17.8778 23.0333 18.1223 23.0333 18.3001 22.9C21.0803 20.8149 22.5001 18.8626 22.5001 17ZM16.5001 17C16.5001 16.1716 17.1716 15.5 18.0001 15.5C18.8285 15.5 19.5001 16.1716 19.5001 17C19.5001 17.8284 18.8285 18.5 18.0001 18.5C17.1716 18.5 16.5001 17.8284 16.5001 17Z" fill="#212121"/>
</svg>

<svg xmlns="http://www.w3.org/2000/svg" width="24" height="24"><path d="M8.904 16.5h3.618a5.916 5.916 0 0 0-.022.5c0 1.201.457 2.361 1.272 3.488-.54.959-1.157 1.511-1.772 1.511-1.197 0-2.4-2.094-3.038-5.204l-.058-.294Zm-.23-1.5h4.2a5.52 5.52 0 0 1 2.627-2.901v-.098c0-.686-.026-1.355-.076-2h-6.85l-.033.488A25.987 25.987 0 0 0 8.674 15ZM18 11.5a5.48 5.48 0 0 1 3.935 1.658A10.095 10.095 0 0 0 21.802 10h-4.87l.038.657c.015.308.024.62.029.934.324-.06.66-.091 1.001-.091ZM3.066 16.501h4.306c.364 2.082.983 3.854 1.792 5.093a10.029 10.029 0 0 1-5.952-4.814l-.146-.279Zm-.867-6.5h4.87a28.211 28.211 0 0 0 .033 4.42l.057.58H2.456a10.047 10.047 0 0 1-.258-5Zm12.745-7.424-.108-.17A10.027 10.027 0 0 1 21.372 8.5h-4.59c-.316-2.416-.957-4.492-1.838-5.923Zm-5.902-.133.122-.037C8.283 3.757 7.628 5.736 7.28 8.06l-.062.44H2.63a10.028 10.028 0 0 1 6.413-6.057ZM12 2.002c1.319 0 2.646 2.542 3.214 6.183l.047.315H8.739C9.28 4.691 10.644 2.002 12 2.002ZM22.5 17a4.5 4.5 0 0 0-9 0c0 1.863 1.42 3.815 4.2 5.9a.5.5 0 0 0 .6 0c2.78-2.085 4.2-4.037 4.2-5.9Zm-6 0a1.5 1.5 0 1 1 3 0 1.5 1.5 0 0 1-3 0Z"/></svg>
